X:11
T:Bour pour
M:3/4=18
L:1/8
K:G
g3gf|egef|:cBcB|dBcd|cdef|edd|c=e|d4:|"
"G"B2c2|d2cd|edcB|c2|


*****************************


6800 1 1.5826625 

<start>
